X: 305564
M: 2/4
L: 1/16
K: A
|:\
(3(EAA) AA ({c}B>A)F>A | Acea fece |\
.a(gae) fecA | BcBA (AF)(FE) |\
(3EAA AA ({c}BA)FA | Acea fece |\
a(gae) fece | e(cB)G A4 :|
|:\
(3Aaa af ({g}fe)cA | BcBA (AF)(FE) |\
EAFA EAFA | EAAB (AF)(FE) |\
(3Aaa af ({g}fe)cA | BcBA (AF)(FE) |\


